X: 16
T: Woman Of The House, The
Z: UPipes & harp
S: https://thesession.org/tunes/321#setting49889
R: reel
M: 4/4
L: 1/8
K: Gmaj
|:DBBA B2BA|GABd eBdB|~A2 GB A2 (3Bcd|eB ~B2 eBdB|
DBBA B3 A|GABd eBdB|A2 GB ~A2 GA|BGAG EG ~G2:|
|:~f3 d edBd|edfd edBd|f3 d edBd|eaag a3 g|
f3 d edBd|~g3 d edBA| ~G3 B A2 GA|BGAG EGG2:|

